contributed-vectors/vk_mail.svg

<svg width="192" height="192" viewBox="0 0 192 192" fill="none" xmlns="http://www.w3.org/2000/svg">
<g clip-path="url(#clip0_1779_43)">
<rect x="20" y="20" width="152" height="152" rx="12" fill="#9ABEFF"/>
<rect x="20.2366" y="64" width="152" height="150.1" rx="22.8" fill="#96DFD3"/>
<path fill-rule="evenodd" clip-rule="evenodd" d="M181.164 109.386C139.642 114.628 110.5 134.205 101.689 142.645L97.1929 146.952L92.177 143.264C80.452 134.644 47.3444 115.494 11 109.34L13.4731 94.7335C48.5432 100.671 80.4002 117.582 96.0598 127.932C109.974 116.776 139.631 99.6974 179.309 94.6879L181.164 109.386Z" fill="white"/>
</g>
<defs>
<clipPath id="clip0_1779_43">
<rect x="20" y="20" width="152" height="152" rx="12" fill="white"/>
</clipPath>
</defs>
</svg>

<svg xmlns="http://www.w3.org/2000/svg" width="192" height="192" fill="none"><g clip-path="url(#a)"><rect width="152" height="152" x="20" y="20" fill="#9ABEFF" rx="12"/><rect width="152" height="150.1" x="20.237" y="64" fill="#96DFD3" rx="22.8"/><path fill="#fff" fill-rule="evenodd" d="M181.164 109.386c-41.522 5.242-70.664 24.819-79.475 33.259l-4.496 4.307-5.016-3.688c-11.725-8.62-44.833-27.77-81.177-33.924l2.473-14.606c35.07 5.937 66.927 22.848 82.587 33.198 13.914-11.156 43.571-28.235 83.249-33.244l1.855 14.698Z" clip-rule="evenodd"/></g><defs><clipPath id="a"><rect width="152" height="152" x="20" y="20" fill="#fff" rx="12"/></clipPath></defs></svg>
